X: 051
T: the Birth Night
B: 204 Favourite Country Dances
N: Published by Straight & Skillern, London ca.1775
F: http://imslp.org/wiki/204_Favourite_Country_Dances_(Various) p.26 #51
Z: 2014 John Chambers <jc:trillian.mit.edu>
M: C
L: 1/8
K: Dm
% - - - - - - - - - - - - - - - - - - - - - - - - -
|:\
d2e2 f2e2 | dfed ^c2A2 | d2e2 f2e2 | defg a4 :|\
|:\
e2(ef) g2(ga) | g2^f2 g4 | g2(ga) g2a2 | bagf e4 |
defg a2a2 | dfed ^c2A2 | defg a2a2 |\
dfed ^c2A2 | a2f2 bagf | e3d d4 :|
% - - - - - - - - - - - - - - - - - - - - - - - - -
%%begintext align
%% Hands across back again cross over 2 Cu. lead
%% up & cast off Right & Left at top
%%endtext

%%sep 1 1 500
%%sep 1 1 500
